X: 24724
T: Mad Alchemist, The
R: jig
M: 6/8
K: Edorian
|:eBB dBB|eBA GFE|eBB dBB|~e3 g2f|
eBB dBB|eBA GFE|eBB dBB|1 ABc dB/c/d:|2 ABc d2B||
|:EFG EFG|ABc d2B|EFG EFG|A2G FED|
EFG EFG|ABc dB/c/d|e2B BAB|1 d2A FED:|2 d2A Bcd||

